resources/haticons/SVG/vimeo2.svg

<!-- Generated by IcoMoon.io -->
<svg version="1.1" xmlns="http://www.w3.org/2000/svg" width="24" height="24" viewBox="0 0 24 24">
<title>vimeo2</title>
<path d="M21.75 0h-19.5c-1.237 0-2.25 1.013-2.25 2.25v19.5c0 1.237 1.013 2.25 2.25 2.25h19.5c1.237 0 2.25-1.013 2.25-2.25v-19.5c0-1.237-1.013-2.25-2.25-2.25zM20.194 7.969c-0.075 1.688-1.256 3.998-3.539 6.933-2.358 3.066-4.355 4.598-5.986 4.598-1.012 0-1.866-0.933-2.564-2.798-0.469-1.711-0.933-3.422-1.402-5.133-0.516-1.866-1.073-2.798-1.669-2.798-0.131 0-0.586 0.272-1.359 0.816l-0.816-1.050c0.858-0.75 1.702-1.505 2.531-2.255 1.144-0.984 1.997-1.505 2.569-1.556 1.35-0.131 2.18 0.792 2.494 2.766 0.337 2.133 0.572 3.455 0.703 3.975 0.389 1.767 0.816 2.648 1.284 2.648 0.361 0 0.909-0.572 1.636-1.72s1.116-2.020 1.167-2.62c0.103-0.989-0.286-1.486-1.167-1.486-0.417 0-0.844 0.094-1.284 0.286 0.853-2.789 2.48-4.148 4.884-4.069 1.781 0.052 2.62 1.205 2.517 3.464z"></path>
</svg>

<svg xmlns="http://www.w3.org/2000/svg" width="24" height="24"><path d="M21.75 0H2.25A2.257 2.257 0 0 0 0 2.25v19.5A2.257 2.257 0 0 0 2.25 24h19.5A2.257 2.257 0 0 0 24 21.75V2.25A2.257 2.257 0 0 0 21.75 0zm-1.556 7.969c-.075 1.688-1.256 3.998-3.539 6.933-2.358 3.066-4.355 4.598-5.986 4.598-1.012 0-1.866-.933-2.564-2.798-.469-1.711-.933-3.422-1.402-5.133-.516-1.866-1.073-2.798-1.669-2.798-.131 0-.586.272-1.359.816l-.816-1.05A198.55 198.55 0 0 0 5.39 6.282c1.144-.984 1.997-1.505 2.569-1.556 1.35-.131 2.18.792 2.494 2.766.337 2.133.572 3.455.703 3.975.389 1.767.816 2.648 1.284 2.648.361 0 .909-.572 1.636-1.72s1.116-2.02 1.167-2.62c.103-.989-.286-1.486-1.167-1.486-.417 0-.844.094-1.284.286.853-2.789 2.48-4.148 4.884-4.069 1.781.052 2.62 1.205 2.517 3.464z"/></svg>
